images/camera.svg

<svg width="24" height="24" viewBox="0 0 24 24" fill="none" xmlns="http://www.w3.org/2000/svg">
<path fill-rule="evenodd" clip-rule="evenodd" d="M9 2C8.66565 2 8.35342 2.1671 8.16795 2.4453L6.46482 5H3C2.20435 5 1.44129 5.31607 0.87868 5.87868C0.316071 6.44129 0 7.20435 0 8V19C0 19.7957 0.316071 20.5587 0.87868 21.1213C1.44129 21.6839 2.20435 22 3 22H21C21.7957 22 22.5587 21.6839 23.1213 21.1213C23.6839 20.5587 24 19.7957 24 19V8C24 7.20435 23.6839 6.44129 23.1213 5.87868C22.5587 5.31607 21.7957 5 21 5H17.5352L15.8321 2.4453C15.6466 2.1671 15.3344 2 15 2H9ZM7.83205 6.5547L9.53518 4H14.4648L16.1679 6.5547C16.3534 6.8329 16.6656 7 17 7H21C21.2652 7 21.5196 7.10536 21.7071 7.29289C21.8946 7.48043 22 7.73478 22 8V19C22 19.2652 21.8946 19.5196 21.7071 19.7071C21.5196 19.8946 21.2652 20 21 20H3C2.73478 20 2.48043 19.8946 2.29289 19.7071C2.10536 19.5196 2 19.2652 2 19V8C2 7.73478 2.10536 7.48043 2.29289 7.29289C2.48043 7.10536 2.73478 7 3 7H7C7.33435 7 7.64658 6.8329 7.83205 6.5547ZM9 13C9 11.3431 10.3431 10 12 10C13.6569 10 15 11.3431 15 13C15 14.6569 13.6569 16 12 16C10.3431 16 9 14.6569 9 13ZM12 8C9.23858 8 7 10.2386 7 13C7 15.7614 9.23858 18 12 18C14.7614 18 17 15.7614 17 13C17 10.2386 14.7614 8 12 8Z" fill="#A5A4AB"/>
</svg>

<svg viewBox="0 0 24 24" fill="none" xmlns="http://www.w3.org/2000/svg"><path fill-rule="evenodd" clip-rule="evenodd" d="M9 2a1 1 0 0 0-.832.445L6.465 5H3a3 3 0 0 0-3 3v11a3 3 0 0 0 3 3h18a3 3 0 0 0 3-3V8a3 3 0 0 0-3-3h-3.465l-1.703-2.555A1 1 0 0 0 15 2H9ZM7.832 6.555 9.535 4h4.93l1.703 2.555A1 1 0 0 0 17 7h4a1 1 0 0 1 1 1v11a1 1 0 0 1-1 1H3a1 1 0 0 1-1-1V8a1 1 0 0 1 1-1h4a1 1 0 0 0 .832-.445ZM9 13a3 3 0 1 1 6 0 3 3 0 0 1-6 0Zm3-5a5 5 0 1 0 0 10 5 5 0 0 0 0-10Z" fill="#A5A4AB"/></svg>
